X: 37517
T: Slip-On Gang, The
R: reel
M: 4/4
K: Emajor
|:GBEG FB,DF|EFGB egfd|edBG A2A/A/A|GBEG FB,DF|
GBEG FB,DF|EFGB egfd|edBG A2A/A/A|1 GBDF EFG/F/E:|2 GBDF E2 ef||
|:geBf dBed|BedB cdef|gebg agfd|edBG A2A/A/A|
GBEG FB,DF|EFGB egfd|edBG A2A/A/A|1 GBDF E2 ef:|2 GBDF EFG/F/E||

